X:1
T:Overture
T:Overture
T:The Nutcracker, Piano Arrangement in 3 hands
T:Hinci
C:Hinci
%%score { ( 1 4 ) | 2 | 3 }
L:1/8
Q:1/4=126
M:2/4
K:Bb
V:1 treble nm="Piano" snm="Pno."
V:4 treble 
V:2 treble 
V:3 treble 
V:1
"^Allegro giusto."!p! .[FB] z .[Be] z/ ([Bd]/ | [Gc]).[Ag] .[Bf].[FB] | (!>![Ee][Bd]) .[Gc].[GB] | %3
 (!>![Gd]2 [Ac]) z | .[FB] z .[Be] z/ (.[Bd]/ | [Gc]).[Ag] .[Bf](!>!.[fb] | [eg]).[df] .[Be].[Bd] | %7
 .[Gc].[Ad] .B!pp! z | .[FB] z .[Be] z/ ([Bd]/ | [Gc]).[Ag] .[Bf].[FB] | (!>![Ee][Bd]) .[Gc].[GB] | %11
 (!>![Gd]2 [Ac]) z | .[FB] z .[Be] z/ (.[Bd]/ | [Gc]).[Ag] .[Bf](!>!.[fb] | [eg]).[df] .[Be].[Bd] | %15
 .[Gc].[Ad] .B!p! .d/.d/ | (c/d/).d/.d/ (B/d/).g/.b/ | (b/=e/).^f/.a/ (a/d/).a/.g/ | %18
 (f/c/).f/.e/ (e/B/).e/.d/ | (B/d/)(A/d/) (!>!A/G/).D/.D/ | (C/D/).D/.D/ (C/D/).F/.A/ | %21
 (A/D/).=E/.G/ (G/C/).G/.F/ | (=E/B,/).E/.D/ (D/A,/).D/.C/ | (C/D/)(B,/C/ A,/) .f/.f/.f/ | %24
 (!>!e/_d/c/B/ A/) .f'/.f'/.f'/ | (!>!e'/_d'/c'/b/ a/) .f/.f/.f/ | (!>!e/_d/c/B/ A/) .f'/.f'/.f'/ | %27
 (!>!e'/_d'/c'/b/ a/).f/.f/.f/ |"_cresc." (c/f/).f/.f/ (^c/^f/).f/.f/ | %29
 (d/g/).g/.g/ (e/_a/).a/.a/ | a/A/b/B/ =b/=B/c'/c/ | ^c'/^c/d'/d/ e'/e/f'/f/ | %32
!mf! (b/e'/d'/c'/) (e'/b/a/).d'/ | .c'/(f/.g'/)(f/ .f'/)(f/b/).e/ | %34
 (!>!e'/b/)(d'/b/) (c'/f/)(b/f/) | (!>!d'/b/g/e/ c'/f/g/a/) | (b/e'/d'/c'/) (e'/b/a/).d'/ | %37
 (.c'/f/.g'/f/ .f'/f/!<(!_a'/b/) | (g'/=e'/b'/_e'/ a'/d'/c''/e'/) | %39
 (b'/f'/^c''/g'/!<)!!f! d'') .d/.d/ | g4- | g4- | g4- | g2- g z |!p!!<(! (A2 B2 | =B2 c2)!<)! | %46
!mp!!>(! (=e2 d>)(B | A2 G2)!>)! |!p! d3!pp!!<(! (D/=E/) | (G/F/=E/F/) (B/A/^G/A/)!<)! | %50
!p! d3 (D/=E/) | (G/F/=E/F/) (B/A/^G/A/) |!<(! (d/^c/^B/c/) (=e/d/c/d/) | %53
 (f/=e/^d/e/) (g/f/e/f/)!<)! |!f!!>(! (!>!a2- a/g/f/d/)!>)! |!mf!!>(! (=e'2- e'/d'/b/g/)!>)! | %56
!mp!!<(! (a2 b2 | =b2 c'2)!<)! |!mf!!>(! (=e'2 d'>)(b | a2 g2)!>)! |!mp! !>!d'3!p!!<(! (d/=e/) | %61
 (g/f/=e/f/) (b/a/^g/a/)!<)! |!mp! !>!d'3!p!!<(! (d/=e/) | (g/f/=e/f/) (b/a/^g/a/)!<)! | %64
!mp! !>!f'3!<(! (^g/a/) | (c'/b/a/b/) (e'/d'/^c'/d'/)!<)! |!mf! !>!f'3!<(! (^g/a/) | %67
 (c'/b/a/b/) (e'/d'/^c'/d'/)!<)! |!f! !>!a'3 (^d'/=e'/) | (g'/f'/).=b/.^c'/ (=e'/d'/).^g/.a/ | %70
 (c'/b/).=e/.^f/ (a/g/).b/.a/ | (c'/b/).=e/.^f/ (a/g/).b/.a/ | %72
 .c'/.b/.c'/.b/!p!"_cresc." .d'/.^c'/.d'/.c'/ | .=e'/.d'/.e'/.d'/ .f'/.e'/.f'/.e'/ | %74
 .g'/.f'/.g'/.f'/ .g'/.f'/.g'/.f'/ | .g'/.f'/.g'/.f'/ .g'/.f'/.g'/.f'/ | %76
!ff! .g'/.f'/.=e'/.f'/ .e'/.d'/.^c'/.d'/ | .c'/.b/.a/.b/ .a/.g/.^f/.g/ | (f/f/=e/d/) a2 | %79
 [fad'][faf'] !>![gbg']2 | ([ac'f']/f/=e/d/) a2 | [fad'][faf'] !>![gbg']2 | [ac']2 [c'g']2 | %83
 [ac']2 [c'g']2 | [ac']2 [c'g']2 | (g'/f'/=e'/f'/) (d'/c'/=b/c'/) | (b/a/^g/a/) (=g/f/=e/f/) | %87
 (d/c/)(f/=e/) (b/a/)(d'/c'/) | [fac'f'][=egb=e'] [fac'f'] z |!p! .[fb] z .[be'] z/ ([bd']/ | %90
 [gc']).[ag'] .[bf'].[fb] | (!>![ee'][bd']) .[gc'].[gb] | (!>![gd']2 [ac']) z | %93
 .[fb] z!<(! .[be'] z/ (.[bd']/ | [gc']).[ag'] .[bf']!<)!!mp!!>(!(!>!.[f'b'] | %95
 [e'g']).[d'f'] .[be'].[bd'] | .[gc'].[ad']!>)! .b!pp! z | .[FB] z .[Be] z/ ([Bd]/ | %98
 [Gc]).[Ag] .[Bf].[FB] | (!>![Ee][Bd]) .[Gc].[GB] | (!>![Gd]2 [Ac]) z | .[FB] z .[Be] z/ (.[Bd]/ | %102
 [Gc]).[Ag] .[Bf](!>!.[fb] | [eg]).[df] .[Be].[Bd] | .[Gc].[Ad] .B!p! .d/.d/ | %105
 (c/d/).d/.d/ (B/d/).g/.b/ | (b/=e/).^f/.a/ (a/d/).a/.g/ | (f/c/).f/.e/ (e/B/).e/.d/ | %108
 (B/d/)(A/d/) (!>!A/G/).D/.D/ | (C/D/).D/.D/ (C/D/).F/.A/ | (A/D/).=E/.G/ (G/C/).G/.F/ | %111
 (=E/B,/).E/.D/ (D/A,/).D/.C/ | (C/D/)(B,/C/ A,/) .f/.f/.f/ | (!>!e/_d/c/B/ A/) .f'/.f'/.f'/ | %114
 (!>!e'/_d'/c'/b/ a/) .f/.f/.f/ | (!>!e/_d/c/B/ A/) .f'/.f'/.f'/ | (!>!e'/_d'/c'/b/ a/).f/.f/.f/ | %117
"_cresc." (c/f/).f/.f/ (^c/^f/).f/.f/ | (d/g/).g/.g/ (e/_a/).a/.a/ | a/A/b/B/ =b/=B/c'/c/ | %120
 ^c'/^c/d'/d/ e'/e/f'/f/ |!mf! (b/e'/d'/c'/) (e'/b/a/).d'/ | .c'/(f/.g'/)(f/ .f'/)(f/b/).e/ | %123
 (!>!e'/b/)(d'/b/) (c'/f/)(b/f/) | (!>!d'/b/g/e/ c'/f/g/a/) | (b/e'/d'/c'/) (e'/b/a/).d'/ | %126
 (.c'/f/.g'/f/ .f'/f/!<(!_a'/b/) | (g'/=e'/b'/_e'/ a'/d'/c''/e'/) | %128
 (b'/f'/^c''/g'/!<)!!f! d'') .d/.d/ | g4- | g4 | f4- | f2- f z |!p!!<(! (d2 e2 | =e2 f2)!<)! | %135
!mp!!>(! (a2 g>)(e | d2 c2)!>)! |!p! g3!pp!!<(! (G/A/) | (c/B/A/B/) (e/d/^c/d/)!<)! | %139
!p! g3 (G/A/) | (c/B/A/B/) (e/d/^c/d/) |!<(! (g/^f/^e/f/) (a/g/f/g/) | %142
 (b/a/^g/a/) (c'/b/a/b/)!<)! |!f!!>(! (d'2- d'/c'/b/g/)!>)! |!mf!!>(! (a'2- a'/g'/e'/c'/)!>)! | %145
!mp!!<(! (d'2 e'2 | =e'2 f'2)!<)! |!mf!!>(! (a'2 g'>)(e' | d'2 c'2)!>)! | %149
!mp! !>!g'3!p!!<(! (^g/a/) | (c'/b/a/b/) (e'/d'/^c'/d'/)!<)! |!mp! !>!g'3!p!!<(! (^g/a/) | %152
 (c'/b/a/b/) (e'/d'/^c'/d'/)!<)! |!mf! b'3!mp!!<(! (^c'/d'/) | %154
 (f'/e'/d'/e'/) (_a'/g'/^f'/g'/)!<)! |!mf! !>!b'3!<(! (^c'/d'/) | %156
 (f'/e'/d'/e'/) (_a'/g'/^f'/g'/)!<)! |!f! !>![d'd'']3 (^g/a/) | (c'/b/).^e/.^f/ (a/g/).^c'/.d'/ | %159
 (f'/e'/).a/.=b/ (d'/c'/).e'/.d'/ | (f'/e'/).a/.=b/ (d'/c'/).e'/.d'/ | %161
 .f'/.e'/.f'/.e'/!p!"_cresc." .g'/.^f'/.g'/.f'/ | .a'/.g'/.a'/.g'/ .b'/.a'/.b'/.a'/ | %163
 .c''/.b'/.c''/.b'/ .c''/.b'/.c''/.b'/ | .c''/.b'/.c''/.b'/ .c''/.b'/.c''/.b'/ | %165
!ff! .c''/.b'/.a'/.b'/ .a'/.g'/.^f'/.g'/ | .f'/.e'/.d'/.e'/ .d'/.c'/.=b/.c'/ | (.b/b/a/g/) d2 | %168
 [Bdg][dfb] !>![egc']2 | ([bd']/b/a/g/) d2 | [Bdg][dfb] !>![egc']2 | [dfb]2 [egc']2 | %172
 [dgb]2 [egc']2 | [dfb]2 [egc']2 | (c'/b/a/b/) (g/f/=e/f/) | (e/d/^c/d/) (c'/b/a/b/) | %176
 (g/f/)(c'/b/) (e'/d'/)(g'/f'/) | !/!b'!/!a' !/!b'!/!a' | !/!b'!/!a' !/!b'!/!a' | %179
 !/!b'!/!a' !/!b'!/!a' | .[bd'f'b'] z .[fbd'] z | .[dfb] z z2 |] %182
V:2
 .B, z (.B, z/ .B,/) | .B,.B, .B,._A, | (!>!G,B,) .E.E | (!>!C2 F) z | .B, z (.B, z/ .B,/) | %5
 .B,.B, .B,(!>!D | E).F .G z | .F.F .B,{F,} G,/A,/ | .[B,D]/.D/.C/.B,/ .G/.G/._G/.F/ | %9
 .=E/.E/._E/.E/ .D/.D/.^C/.D/ | .E/.E/.=E/.F/ .G/.G/.^F/.G/ | .G/.G/.^F/.G/ .A/.A/.^G/.A/ | %12
 .D/.D/.C/.B,/ .G/.G/._G/.F/ | .=E/.E/._E/.E/ .D/.D/.^C/.D/ | .E/.E/.F/.F/ .G/.G/.B/.B/ | %15
 .F/.F/.G/.F/ .B, z | .[^F,D] z .[G,DG] z | .[CD_G] z .[B,D] z | .[CG] z .[DG] z | %19
 (!>!.[D^Fc]2 .[G,D]) z | .[GB] z .[FA] z | .[Cc] z .[A,C] z | .[B,FB] z .[CF] z | %23
 .[=EGc] z .[CFc] z | (!>![B,EB]2 [CF]) z | (!>![Beb]2 [Fcf]) z | (!>![B,EB]2 [CF]) z | %27
 (!>![Beb]2 [Fcf]) z | ([FAc]2 [_GB_d]2) | ([G=Bd]2 [_Ace]2) | ([A^c=e][Bdf]) ([=B_e_g][=c=e=g]) | %31
 ([^cf_a][d^f=a]) ([egb][=fac']) | !tenuto![FB] z !tenuto![Be] z/ .[Bd]/ | ([Gc][Ag] [Bf]).[FB] | %34
 ([Ee][Bd]) .[Gc].[GB] | ([Gd]2 [Ac]) z | !tenuto![FB] z !tenuto![Be] z/ .[Bd]/ | %37
 ([Gc][Ag] [Bf])([_c_a] | [Bg])([_db] [ca])([ec'] | [db])([g^c'] [^fd']) z |[K:treble] z2 z ([df] | %41
 [ce])([D=Bd] [Ec])([E_B_d] | [=EBc])([^DB_d] [EBc])([DBd] | [=EBc])([^DB_d] [EBc]) z | %44
 z .[cfa] z .[cfb] | z .[cf=b] z .[cfc'] | z .[fb=e'] z .[fbd'] | z .[c^fc'] z .[cgc'] | %48
 z2 .[=egd'] z | z .[cac'] z .[Fcf] | z2 .[=egd'] z | z .[cac'] z .[Fcf] | z .[G=eg] z .[Afa] | %53
 z .[Aga] z .[dad'] | z/ (D/F/=B/ .[df=bd']) z | z/ (G/c/=e/ .[cegc']) z | %56
[K:treble] z .[F,A,F] z .[G,B,G] | z .[^G,=B,^G] z .[A,CA] | z .[B,=EB] z .[DBd] | %59
 z .[Ece] z .[=Ec=e] | z2 .[B,=EB] z | z .[A,FA] z .[F,CF] | z2 .[B,=EB] z | z .[A,FA] z .[F,A,F] | %64
 z2 .[Ece] z | z .[D=Bd] z .[B,D_B] | z2 .[Ece] z | z .[DFd] z .[B,DB] | %68
 z [A,^CA] [=B,D=B][C=E^c] | [Dd]=E F^F | GA B^F | GA B^F | [dg][dg] [ga][ga] | [fa][fa] [ga][ga] | %74
 [da][da] [=B=b][Bb] | [cc'][cc'] [^c^c'][cc'] | [Bdb][Bdb] z [Bb] | [cfc'][cfc'] z [=EBc=e] | %78
 [FAc] z (^c/=B/A/G/) | (F/=E/D/^C/) [=CGB]>[CGB] | [FA] z (^c/=B/A/G/) | %81
 (F/=E/D/^C/) [=CGB]>[CGB] | [FAf]2 [CAc]2 | [FAf]2 [CAc]2 | [FAf]2 [CAc]2 | [FAf][FAf] z [Afa] | %86
 z [Fcf] z [FAc] | z [Ac] [Acf][Afa] | [FA][CB] [FA] z | .B, z (.B, z/ .B,/) | .B,.B, .B,._A, | %91
 (!>!G,B,) .E.E | (!>!C2 F) z | .B, z (.B, z/ .B,/) | .B,.B, .B,(!>!D | E).F .G z | %96
 .F.F .B,{F,} G,/A,/ | .[B,D]/.D/.C/.B,/ .G/.G/._G/.F/ | .=E/.E/._E/.E/ .D/.D/.^C/.D/ | %99
 .E/.E/.=E/.F/ .G/.G/.^F/.G/ | .G/.G/.^F/.G/ .A/.A/.^G/.A/ | .D/.D/.C/.B,/ .G/.G/._G/.F/ | %102
 .=E/.E/._E/.E/ .D/.D/.^C/.D/ | .E/.E/.F/.F/ .G/.G/.B/.B/ | .F/.F/.G/.F/ .B, z | %105
 .[^F,D] z .[G,DG] z | .[CD_G] z .[B,D] z | .[CG] z .[DG] z | (!>!.[D^Fc]2 .[G,D]) z | %109
 .[GB] z .[FA] z | .[Cc] z .[A,C] z | .[B,FB] z .[CF] z | .[=EGc] z .[CFc] z | %113
 (!>![B,EB]2 [CF]) z | (!>![Beb]2 [Fcf]) z | (!>![B,EB]2 [CF]) z | (!>![Beb]2 [Fcf]) z | %117
 ([FAc]2 [_GB_d]2) | ([G=Bd]2 [_Ace]2) | ([A^c=e][Bdf]) ([=B_e_g][=c=e=g]) | %120
 ([^cf_a][d^f=a]) ([egb][=fac']) | !tenuto![FB] z !tenuto![Be] z/ .[Bd]/ | ([Gc][Ag] [Bf]).[FB] | %123
 ([Ee][Bd]) .[Gc].[GB] | ([Gd]2 [Ac]) z | !tenuto![FB] z !tenuto![Be] z/ .[Bd]/ | %126
 ([Gc][Ag] [Bf])([_c_a] | [Bg])([_db] [ca])([ec'] | [db])([g^c'] [^fd']) z | z2 z ([df] | %130
 [ce])([D=Bd] [Ec])([E_B_d] | [=EBc])([^DB_d] [EBc])([DBd] | [=EBc])([^DB_d] [EBc]) z | %133
 z .[fbd'] z .[fbe'] | z .[fb=e'] z .[fbf'] | z .[be'a'] z .[be'g'] | z .[f=bf'] z .[fc'f'] | %137
 z2 .[ac'g'] z | z .[fd'f'] z .[Bfb] | z2 .[ac'g'] z | z .[fd'f'] z .[Bfb] | z .[cac'] z .[dbd'] | %142
 z .[dc'd'] z .[gd'g'] | z/ (G/B/=e/ [Beg]) z | z/ (c/f/a/ [fac']) z | z .[Bfb] z .[cfb] | %146
 z .[^cfb] z .[dfb] | z .[efb] z .[fgb] | z .[=B^g=b] z .[eae'] | z2 .[cac'] z | %150
 z .[dfd'] z .[Bfb] | z2 .[cac'] z | z .[dfd'] z .[Bfb] | z2 .[f_ad'] z | z .[Bgb] z .[ebe'] | %155
 z2 .[f_ad'] z | z .[Bgb] z .[ebe'] | z [D^Fd] [=EG=e][FA^f] | [Gg]A B=B | cd e=B | cd e=B | %161
 [dg][dg] [dd'][dd'] | [dd'][dd'] [dd'][dd'] | [dd'][dgd'] [=e=e'][ee'] | [dfd'][dfd'] [c^f][cf] | %165
 [ceg][ceg] z [bc'] | [bc'][bc'] z [efa] | [Bdfb] z (^f/=e/d/c/) | (B/A/G/_G/) [FB]>[FB] | %169
 [Bdb] z (^f/=e/d/c/) | (B/A/G/_G/) [FB]>[FB] | [B,DFB]2 [FB]2 | [B,DFB]2 [FB]2 | [B,DFB]2 [FB]2 | %174
 [Bdb][Bdb] z [DBd] | z [fb] z [df] | z [Bdf] [dfb][fbd'] | [fd'f'][fe'f'] [fd'f'][fe'f'] | %178
 [fd'f'][fe'f'] [fd'f'][fe'f'] | [fd'f'][fe'f'] [fd'f'][fe'f'] | .[Bdf] z .[Bd] z | .[B,DF] z z2 |] %182
V:3
 z4 | z4 | z4 | z4 | z4 | z4 | z4 | z4 | z4 | z4 | z4 | z4 | z4 | z4 | z4 | z4 | z4 | z2 (!>!F>G | %18
 !>!^G>A B) z | z4 | z4 | z2 (!>!c>^c | !>!d>f A) z | z4 | z4 | z4 | z4 | z4 | z4 | z4 | z4 | z4 | %32
[K:bass] !tenuto![B,D] z !tenuto![B,E] z | (B,2 B,) z | z z .[G,C].[G,C] | ([F,B,]2 [F,A,]) z | %36
 !tenuto![B,D] z !tenuto![B,E] z | (B,2 B,)([DF] |[K:treble] [EG])([=EG] [FA])([^FA] | %39
 [GB])(G [^FA]) z | z4 | z4 | z4 | z4 | z4 | z4 | z4 | z4 | z4 | z4 | z4 | z4 | z4 | z4 | z4 | z4 | %56
 z4 | z4 | z4 | z4 | z4 | z4 | z4 | z4 | z4 | z4 | z4 | z4 | z4 | z4 | z4 | z4 | GG =EE | FF ^CC | %74
 DD _DD | CC =B,B, | B,B, z [B,F] | CC z [C=E] | C z z2 | z4 | z4 | z4 | z4 | z4 | z4 | z4 | z4 | %87
 z4 | z4 | .[FB] z .[Be] z/ ([Bd]/ | [Gc]).[Ag] .[Bf].[FB] | (!>![Ee][Bd]) .[Gc].[GB] | %92
 (!>![Gd]2 [Ac]) z | .[FB] z .[Be] z/ (.[Bd]/ | [Gc]).[Ag] .[Bf](!>!.[fb] | [eg]).[df] .[Be].[Bd] | %96
 .[Gc].[Ad] .B z | z4 | z4 | z4 | z4 | z4 | z4 | z4 | z4 | z4 | z2 (!>!F>G | !>!^G>A B) z | z4 | %109
 z4 | z2 (!>!c>^c | !>!d>f A) z | z4 | z4 | z4 | z4 | z4 | z4 | z4 | z4 | z4 | %121
[K:bass] !tenuto![B,D] z !tenuto![B,E] z | (B,2 B,) z | z z .[G,C].[G,C] | ([F,B,]2 [F,A,]) z | %125
 !tenuto![B,D] z !tenuto![B,E] z | (B,2 B,)([DF] |[K:treble] [EG])([=EG] [FA])([^FA] | %128
 [GB])(G [^FA]) z | z4 | z4 | z4 | z4 | z4 | z4 | z4 | z4 | z4 | z4 | z4 | z4 | z4 | z4 | z4 | z4 | %145
 z4 | z4 | z4 | z4 | z4 | z4 | z4 | z4 | z4 | z4 | z4 | z4 | z4 | z4 | z4 | z4 | cc AA | BB ^FF | %163
 GG _GG | FF =EE | EE z =E | FF z [FA] | [DF] z z2 | z4 | z4 | z4 | z4 | z4 | z4 | %174
 (c''/b'/a'/b'/) (g'/f'/=e'/f'/) | (e'/d'/^c'/d'/) z2 | z F [FB][Bd] | [Bd][Ae] [Bd][Ae] | %178
 [Bd][Ae] [Bd][Ae] | [Bd][Ae] [Bd][Ae] | z z z2 | z4 |] %182
V:4
 x4 | x4 | x4 | x4 | x4 | x4 | x4 | x4 | x4 | x4 | x4 | x4 | x4 | x4 | x4 | x4 | x4 | x4 | x4 | %19
 x4 | x4 | x4 | x4 | x4 | x4 | x4 | x4 | x4 | x4 | x4 | x4 | x4 | x4 | x4 | x4 | x4 | x4 | x4 | %38
 x4 | x4 | x4 | x4 | x4 | x4 | x4 | x4 | x4 | x4 | x4 | x4 | x4 | x4 | x4 | x4 | x4 | x4 | x4 | %57
 x4 | x4 | x4 | x4 | x4 | x4 | x4 | x4 | x4 | x4 | x4 | x4 | x4 | x4 | x4 | x4 | x4 | x4 | x4 | %76
 x4 | x4 | x4 | x2 (f'/=e'/d'/e'/) | x4 | x2 (f'/=e'/d'/e'/) | (g'/f'/=e'/f'/) (f'/e'/d'/e'/) | %83
 (g'/f'/=e'/f'/) (f'/e'/d'/e'/) | (g'/f'/=e'/f'/) (f'/e'/d'/e'/) | x4 | x4 | x4 | x4 | x4 | x4 | %91
 x4 | x4 | x4 | x4 | x4 | x4 | x4 | x4 | x4 | x4 | x4 | x4 | x4 | x4 | x4 | x4 | x4 | x4 | x4 | %110
 x4 | x4 | x4 | x4 | x4 | x4 | x4 | x4 | x4 | x4 | x4 | x4 | x4 | x4 | x4 | x4 | x4 | x4 | x4 | %129
 x4 | x4 | x4 | x4 | x4 | x4 | x4 | x4 | x4 | x4 | x4 | x4 | x4 | x4 | x4 | x4 | x4 | x4 | x4 | %148
 x4 | x4 | x4 | x4 | x4 | x4 | x4 | x4 | x4 | x4 | x4 | x4 | x4 | x4 | x4 | x4 | x4 | x4 | x4 | %167
 x4 | x2 (b/a/g/a/) | x4 | x2 (b/a/g/a/) | (c'/b/a/b/) (b/a/g/a/) | (c'/b/a/b/) (b/a/g/a/) | %173
 (c'/b/a/b/) (b/a/g/a/) | x4 | x4 | x4 | x4 | x4 | x4 | x4 | x4 |] %182

